src/assets/icons/cars/family_car.svg

<svg width="48" height="48" viewBox="0 0 48 48" fill="none" xmlns="http://www.w3.org/2000/svg"><path fill-rule="evenodd" clip-rule="evenodd" d="M10 25.077c0-.328.076-1.419 1.109-1.709l1.537-.44A.977.977 0 0013 23h7a1 1 0 000-2h-1.829c2.142-.936 5.269-2.323 6.307-2.887a.934.934 0 01.445-.113h9.368c.31 0 .62.073.896.211l1.701.851a1.993 1.993 0 011.108 1.797L37.995 22H37a1 1 0 000 2h1v1c0 .655-.337 1.832-.875 2.592a1.006 1.006 0 01-.824.408h-.852c-.239-1.416-1.466-2.395-2.949-2.395-1.408 0-2.585.395-2.906 2.395H19.406c-.321-2-1.498-2.594-2.906-2.594-1.265 0-2.343.594-2.784 1.594h-2.325C10.62 27 10 26.771 10 26v-.923zM32.5 29.5c-.551 0-1-.449-1-1 0-.551.449-1 1-1 .551 0 1 .449 1 1 0 .551-.449 1-1 1zm-16 0c-.551 0-1-.449-1-1 0-.551.449-1 1-1 .551 0 1 .449 1 1 0 .551-.449 1-1 1zm-5.109-.5h2.262c.384 2 1.508 2.406 2.847 2.406 1.191 0 2.213-.406 2.697-1.406h10.606c.484 1 1.506 1.605 2.697 1.605 1.105 0 2.062-.713 2.583-1.605h1.218a3 3 0 002.452-1.253c.718-1.014 1.239-2.59 1.239-3.747l.004-4.137a3.98 3.98 0 00-2.213-3.59l-1.701-.851A4.03 4.03 0 0034.291 16h-9.368a2.94 2.94 0 00-1.401.356c-1.515.825-8.196 3.698-8.23 3.713l-4.728 1.375C9.004 21.881 8 23.307 8 25.077V26c0 1.874 1.517 3 3.391 3z" fill="#253238"/></svg>

<svg width="48" height="48" viewBox="0 0 48 48" fill="none" xmlns="http://www.w3.org/2000/svg">
<g id="Icons / Vertical Cars / Car bodytype familiar">
<path id="Fill 1" fill-rule="evenodd" clip-rule="evenodd" d="M10 25.077C10 24.749 10.076 23.658 11.109 23.368L12.646 22.928C12.758 22.971 12.874 23 13 23H20C20.552 23 21 22.552 21 22C21 21.448 20.552 21 20 21H18.171C20.313 20.064 23.44 18.677 24.478 18.113C24.614 18.039 24.768 18 24.923 18H34.291C34.601 18 34.911 18.073 35.187 18.211L36.888 19.062C37.573 19.405 37.998 20.093 37.996 20.859L37.995 22H37C36.448 22 36 22.448 36 23C36 23.552 36.448 24 37 24H38V25C38 25.655 37.663 26.832 37.125 27.592C36.944 27.848 36.633 28 36.301 28H35.449C35.21 26.584 33.983 25.605 32.5 25.605C31.092 25.605 29.915 26 29.594 28H19.406C19.085 26 17.908 25.406 16.5 25.406C15.235 25.406 14.157 26 13.716 27H11.391C10.62 27 10 26.771 10 26V25.077ZM32.5 29.5C31.949 29.5 31.5 29.051 31.5 28.5C31.5 27.949 31.949 27.5 32.5 27.5C33.051 27.5 33.5 27.949 33.5 28.5C33.5 29.051 33.051 29.5 32.5 29.5ZM16.5 29.5C15.949 29.5 15.5 29.051 15.5 28.5C15.5 27.949 15.949 27.5 16.5 27.5C17.051 27.5 17.5 27.949 17.5 28.5C17.5 29.051 17.051 29.5 16.5 29.5ZM11.391 29H13.653C14.037 31 15.161 31.406 16.5 31.406C17.691 31.406 18.713 31 19.197 30H29.803C30.287 31 31.309 31.605 32.5 31.605C33.605 31.605 34.562 30.892 35.083 30H36.301C37.281 30 38.198 29.532 38.753 28.747C39.471 27.733 39.992 26.157 39.992 25L39.996 20.863C40 19.333 39.151 17.957 37.783 17.273L36.082 16.422C35.529 16.146 34.91 16 34.291 16H24.923C24.435 16 23.95 16.123 23.522 16.356C22.007 17.181 15.326 20.054 15.292 20.069L10.564 21.444C9.004 21.881 8 23.307 8 25.077V26C8 27.874 9.517 29 11.391 29Z" fill="#253238"/>
</g>
</svg>
